X:1
T:Title
%%score { ( 1 3 ) | ( 2 4 ) }
L:1/8
Q:1/4=100
M:4/4
K:Db
V:1 treble nm="Grand Piano"
V:3 treble 
V:2 bass 
V:4 bass 
V:1
 F3 F [_FB]2 [Fc]2 | [CGB]3 [A,CF] [CFA]2 [A,EG]2 | [A,DF]2 [A,CG]2 [A,DA]2 [Fd]2 | %3
w: I.~Allan~Sankey * * *|||
 [_Fc]3 [FB] [A,=FA]4 | [CGA]3 [DGA] [EGA]2 [Gc]2 | [Fd]2 [A,=DF]2 [_CDA]2 [B,EG]2 | %6
w: |||
 [A,DF]3 [A,DF][K:bass] [=G,DE]2 [_G,DE]2 | [B,CG]3 [A,CF] [F,D]4 | [DB]3 [DB] G2 B2 | %9
w: |||
 d3 [Fd] [FA]2 [Ad]2 | [=Ge]2 [Gd]2 [EGc]2 [DGB]2 | [CGB]3 [CGA] [A,CGe]4 | %12
w: |||
 [Fd]3 [Gd] [Ad]2 [Af]2 | e2 d2 c2 B2 | z4 G2 F2[K:bass] | [DE]2 [G,CE]2 [F,D]4 |] %16
w: ||||
V:2
 [D,A,D]3 [D,A,D] [D,=G,]2 [D,G,]2 | A,,3 A,, A,,2 C,2 | D,2 E,2 F,2 [D,A,]2 | %3
 [D,=G,]3 [D,G,] D,4 | A,,3 B,, C,2 [A,,A,]2 | [D,A,]2 B,,2 F,,2 G,,2 | A,,3 A,, B,,2 =A,,2 | %7
 A,,3 A,, D,4 | [G,,G,]3 [G,,G,] [G,B,D]2 [G,D]2 | [F,A,D]3 [D,A,] [D,D]2 [F,D]2 | %10
 [E,D]2 [E,B,]2 E,2 E,2 | A,,3 A,, A,,4 | [D,A,]3 [E,A,] [F,D]2 [D,_C]2 | %13
 [G,B,G]2 [G,B,G]2 [=G,C_F]2 [G,DF]2 | z4[K:bass] z2 D2 | A,2 A,,2 D,4 |] %16
V:3
 x8 | x8 | x8 | x8 | x8 | x8 | x4[K:bass] x4 | x8 | x8 | x8 | x8 | x8 | x8 | x8 | %14
 A3 D z C z[K:bass] B, | x8 |] %16
V:4
 x8 | x8 | x8 | x8 | x8 | x8 | x8 | x8 | x8 | x8 | x8 | x8 | x8 | x8 | %14
 [A,DF]3[K:bass] [F,A,] .[E,B,D]2 [F,A,]G, | x8 |] %16

